X:142
T: ES SOLLT SICH EIN GOLDSCHMIED SCHMIEDEN
N: E0071G
O: Europa, Mitteleuropa, Deutschland, Bonn; Koblenz
R: erzaehlendes Volks - Lied, Sage, Liebe
M: 6/8
L: 1/16
K: G
D2 | G2G2G2B3AB2 | G4F2G4
AB | c4c2B3cd2 | A6z4
Bc | d2d2dcB3cd2 | d4c2A4
A2 | B3cd2G4BA | G4z2
A6 | B3cd2G4BA | G6z4

@@@ Tune index: 3792
